collections/iconoir/brain-electricity.svg

<svg stroke-width="1.5" fill="none" xmlns="http://www.w3.org/2000/svg" viewBox="0 0 24 24" width="20" height="20"><path d="M7 14a3 3 0 101 5.83m-3.736-4.225a4 4 0 01-.874-6.636m.03-.081A2.5 2.5 0 017 5.5m.238.065A2.5 2.5 0 1112 4.5V20m-4 0a2 2 0 104 0m0-13a3 3 0 003 3m5.61-1.031A3.99 3.99 0 0122 12c0 .703-.181 1.364-.5 1.938m-.92-5.05A2.5 2.5 0 0017 5.5m-5-1a2.5 2.5 0 114.762 1.065M14 22a2 2 0 01-2-2m6.667-4L17 19h4l-1.667 3" stroke="currentColor" stroke-linecap="round" stroke-linejoin="round"/></svg>

<svg stroke-width="1.5" fill="none" xmlns="http://www.w3.org/2000/svg" viewBox="0 0 24 24" width="20" height="20"><path d="M7 14a3 3 0 101 5.83M4.264 15.605a4 4 0 01-.874-6.636M3.42 8.888A2.5 2.5 0 017 5.5M7.238 5.565A2.5 2.5 0 1112 4.5V20M8 20a2 2 0 104 0M12 7a3 3 0 003 3M20.61 8.969A3.99 3.99 0 0122 12c0 .703-.181 1.364-.5 1.938M20.58 8.888A2.5 2.5 0 0017 5.5M12 4.5a2.5 2.5 0 114.762 1.065M14 22a2 2 0 01-2-2M18.667 16L17 19h4l-1.667 3" stroke="currentColor" stroke-linecap="round" stroke-linejoin="round"/></svg>
